dist/2.0.0/img/icon-facebook-inverse.svg

<?xml version="1.0" encoding="UTF-8" standalone="no"?>
<svg width="23px" height="22px" viewBox="0 0 23 22" version="1.1" xmlns="http://www.w3.org/2000/svg" xmlns:xlink="http://www.w3.org/1999/xlink" xmlns:sketch="http://www.bohemiancoding.com/sketch/ns">
    <!-- Generator: Sketch 3.3 (11970) - http://www.bohemiancoding.com/sketch -->
    <title>icon-facebook-inverse</title>
    <desc>Created with Sketch.</desc>
    <defs></defs>
    <g id="Desktop" stroke="none" stroke-width="1" fill="none" fill-rule="evenodd" sketch:type="MSPage">
        <g id="Desktop-HD" sketch:type="MSArtboardGroup" transform="translate(-416.000000, -420.000000)" fill="#FFFFFF">
            <g id="icon-facebook-inverse" sketch:type="MSLayerGroup" transform="translate(416.000000, 420.000000)">
                <path d="M2.07659181,19.9099345 C2.89776045,20.6695369 3.84816594,21.063 5.00329174,21.063 L12.7815201,21.063 L12.7815201,12.7456273 L9.57232897,12.7456273 L9.57232897,9.67989393 L12.7815201,9.67989393 L12.7815201,7.39780795 C12.7815201,6.09828677 13.1657995,5.06763204 13.961807,4.33207463 C14.7326534,3.59542427 15.7848472,3.22819205 17.0680661,3.22819205 C17.8892348,3.22819205 18.7367083,3.27628198 19.6608089,3.35060279 L19.6608089,6.17151462 L17.7611416,6.19665255 C17.1195321,6.19665255 16.6574818,6.31906329 16.4012955,6.58902269 C16.1188043,6.8589821 15.9895675,7.22621432 15.9895675,7.71695024 L15.9895675,9.67989393 L19.3268517,9.67989393 L18.8911063,12.7456273 L15.9895675,12.7456273 L15.9895675,21.063 L18.7367083,21.063 C19.8666729,21.063 20.8422396,20.6695369 21.6634082,19.9099345 C22.4594157,19.1492392 22.87,18.2169502 22.87,17.1130677 L22.87,3.98779442 C22.87,2.90904976 22.4594157,1.9767608 21.6634082,1.21606547 C20.8422396,0.455370147 19.8918341,0.063 18.7367083,0.063 L5.00329174,0.063 C3.84816594,0.063 2.89776045,0.455370147 2.07659181,1.21606547 C1.28058432,1.9767608 0.87,2.90904976 0.87,3.98779442 L0.87,17.1130677 C0.87,18.2169502 1.28058432,19.1492392 2.07659181,19.9099345" id="Fill-33" sketch:type="MSShapeGroup"></path>
            </g>
        </g>
    </g>
</svg>

<svg width="23" height="22" viewBox="0 0 23 22" xmlns="http://www.w3.org/2000/svg"><title>icon-facebook-inverse</title><path d="M2.077 19.91c.82.76 1.77 1.153 2.926 1.153h7.78v-8.317h-3.21V9.68h3.21V7.398c0-1.3.383-2.33 1.18-3.066.77-.737 1.822-1.104 3.105-1.104.82 0 1.67.048 2.593.123v2.822l-1.9.025c-.64 0-1.103.122-1.36.392-.28.27-.41.636-.41 1.127V9.68h3.337l-.436 3.066h-2.9v8.317h2.747c1.13 0 2.105-.393 2.926-1.153.796-.76 1.207-1.693 1.207-2.797V3.988c0-1.08-.41-2.01-1.207-2.772-.82-.76-1.77-1.153-2.926-1.153H5.003c-1.155 0-2.105.392-2.926 1.153C1.28 1.976.87 2.91.87 3.988v13.125c0 1.104.41 2.036 1.207 2.797" fill="#FFF" fill-rule="evenodd"/></svg>
